flaticon/essential/view.svg

<svg xmlns="http://www.w3.org/2000/svg" width="32" height="32" viewBox="0 0 24 24">
    <path d="M 20.699219 8.742188 C 15.882812 3.921875 8.039062 3.921875 3.21875 8.742188 L 0 11.960938 L 3.300781 15.257812 C 5.707031 17.667969 8.875 18.875 12.039062 18.875 C 15.207031 18.875 18.371094 17.667969 20.78125 15.257812 L 24 12.039062 Z M 20.207031 14.6875 C 15.703125 19.1875 8.375 19.1875 3.871094 14.6875 L 1.148438 11.960938 L 3.792969 9.3125 C 8.296875 4.808594 15.625 4.808594 20.128906 9.3125 L 22.851562 12.039062 Z M 20.207031 14.6875"/>
    <path d="M 11.582031 8.746094 C 10.019531 8.746094 8.746094 10.015625 8.746094 11.582031 C 8.746094 11.804688 8.925781 11.988281 9.152344 11.988281 C 9.375 11.988281 9.554688 11.804688 9.554688 11.582031 C 9.554688 10.464844 10.464844 9.554688 11.582031 9.554688 C 11.808594 9.554688 11.988281 9.375 11.988281 9.148438 C 11.988281 8.925781 11.808594 8.746094 11.582031 8.746094 Z M 11.582031 8.746094"/>
    <path d="M 11.988281 6.71875 C 9.082031 6.71875 6.71875 9.082031 6.71875 11.988281 C 6.71875 14.894531 9.082031 17.257812 11.988281 17.257812 C 14.894531 17.257812 17.257812 14.894531 17.257812 11.988281 C 17.257812 9.082031 14.894531 6.71875 11.988281 6.71875 Z M 11.988281 16.449219 C 9.53125 16.449219 7.527344 14.445312 7.527344 11.988281 C 7.527344 9.527344 9.53125 7.527344 11.988281 7.527344 C 14.449219 7.527344 16.449219 9.527344 16.449219 11.988281 C 16.449219 14.445312 14.449219 16.449219 11.988281 16.449219 Z M 11.988281 16.449219"/>
</svg>

<svg xmlns="http://www.w3.org/2000/svg" width="32" height="32" viewBox="0 0 24 24">
    <path d="M20.7 8.742c-4.817-4.82-12.66-4.82-17.481 0L0 11.961l3.3 3.297a12.315 12.315 0 0 0 8.74 3.617c3.167 0 6.331-1.207 8.741-3.617L24 12.039zm-.493 5.945c-4.504 4.5-11.832 4.5-16.336 0l-2.723-2.726 2.645-2.649c4.504-4.503 11.832-4.503 16.336 0l2.723 2.727zm0 0"/>
    <path d="M11.582 8.746a2.838 2.838 0 0 0-2.836 2.836.405.405 0 0 0 .809 0 2.03 2.03 0 0 1 2.027-2.027.403.403 0 1 0 0-.809zm0 0"/>
    <path d="M11.988 6.719a5.275 5.275 0 0 0-5.27 5.27 5.275 5.275 0 0 0 5.27 5.269 5.275 5.275 0 0 0 5.27-5.27 5.275 5.275 0 0 0-5.27-5.27zm0 9.73a4.47 4.47 0 0 1-4.46-4.46c0-2.462 2.003-4.462 4.46-4.462 2.461 0 4.461 2 4.461 4.461 0 2.457-2 4.461-4.46 4.461zm0 0"/>
</svg>
